;FLAVOR:Marlin
;TIME:11821
;Filament used: 11.1814m
;Layer height: 0.2
;MINX:44.814
;MINY:45.332
;MINZ:0.2
;MAXX:285.186
;MAXY:137.2
;MAXZ:10
;Generated with Cura_SteamEngine 4.6.1
M140 S50
M105
M190 S50
M104 S200
M105
M109 S200
M82 ;absolute extrusion mode
M201 X500.00 Y500.00 Z100.00 E5000.00 ;Setup machine max acceleration
M203 X500.00 Y500.00 Z10.00 E50.00 ;Setup machine max feedrate
M204 P500.00 R1000.00 T500.00 ;Setup Print/Retract/Travel acceleration
M205 X8.00 Y8.00 Z0.40 E5.00 ;Setup Jerk
M220 S100 ;Reset Feedrate
M221 S100 ;Reset Flowrate

G28 ;Home
M420 S1 Z2 ;Enable ABL using saved Mesh and Fade Height

G92 E0 ;Reset Extruder
G1 Z2.0 F3000 ;Move Z Axis up
G1 X10.1 Y20 Z0.28 F5000.0 ;Move to start position
G1 X10.1 Y200.0 Z0.28 F1500.0 E15 ;Draw the first line
G1 X10.4 Y200.0 Z0.28 F5000.0 ;Move to side a little
G1 X10.4 Y20 Z0.28 F1500.0 E30 ;Draw the second line
G92 E0 ;Reset Extruder
G1 Z2.0 F3000 ;Move Z Axis up

G92 E0
G92 E0
G1 F1500 E-6.5
;LAYER_COUNT:50
;LAYER:0
M107
G0 F6000 X196.86 Y45.35 Z0.2
;TYPE:SKIRT
G1 F1500 E0
G1 F1200 X197.987 Y45.404 E0.03753
G1 X198.351 Y45.428 E0.04966
G1 X198.828 Y45.468 E0.06558
G1 X199.829 Y45.602 E0.09917
G1 X200.43 Y45.713 E0.1195
G1 X200.762 Y45.78 E0.13076
G1 X201.487 Y45.939 E0.15545
G1 X202.482 Y46.21 E0.18975
G1 X202.988 Y46.376 E0.20746
G1 X203.318 Y46.491 E0.21909
G1 X204.093 Y46.775 E0.24654
G1 X205.015 Y47.165 E0.27983
G1 X205.442 Y47.371 E0.2956
G1 X205.749 Y47.526 E0.30704
G1 X206.498 Y47.919 E0.33517
G1 X207.405 Y48.456 E0.37023
G1 X207.915 Y48.795 E0.3906
G1 X208.213 Y49.001 E0.40265
G1 X208.835 Y49.447 E0.42811
G1 X209.624 Y50.074 E0.46163
G1 X209.995 Y50.4 E0.47805
G1 X210.242 Y50.624 E0.48914
G1 X210.86 Y51.204 E0.51733
G1 X211.606 Y51.982 E0.55318
G1 X212.161 Y52.633 E0.58163
G1 X212.661 Y53.25 E0.60805
G1 X213.268 Y54.082 E0.6423
G1 X213.555 Y54.52 E0.65972
G1 X213.75 Y54.83 E0.6719
G1 X214.866 Y56.674 E0.74359
G1 X216.246 Y58.89 E0.83042
G1 X217.666 Y61.032 E0.91589
G1 X219.109 Y63.077 E0.99914
G1 X220.629 Y65.112 E1.08362
G1 X222.216 Y67.114 E1.16859
G1 X223.862 Y69.074 E1.25372
G1 X225.533 Y70.952 E1.33733
G1 X227.271 Y72.8 E1.4217
G1 X229.072 Y74.607 E1.50656
G1 X230.908 Y76.349 E1.59074
G1 X232.818 Y78.059 E1.676
G1 X234.719 Y79.669 E1.75886
G1 X236.735 Y81.28 E1.84469
G1 X238.775 Y82.818 E1.92967
G1 X240.812 Y84.265 E2.01277
G1 X242.932 Y85.682 E2.09758
G1 X245.083 Y87.034 E2.18208
G1 X247.271 Y88.323 E2.26655
G1 X249.521 Y89.566 E2.35204
G1 X251.742 Y90.711 E2.43515
G1 X254.042 Y91.816 E2.52002
G1 X256.378 Y92.858 E2.60509
G1 X258.702 Y93.818 E2.68873
G1 X261.103 Y94.73 E2.77415
G1 X263.491 Y95.559 E2.85823
G1 X265.867 Y96.311 E2.94112
G1 X269.787 Y97.405 E3.07648
G1 X270.586 Y97.636 E3.10414
G1 X271.239 Y97.835 E3.12685
G1 X271.904 Y98.046 E3.15005
G1 X272.752 Y98.357 E3.18009
G1 X273.488 Y98.699 E3.20709
G1 X274.201 Y99.068 E3.23379
G1 X274.833 Y99.407 E3.25764
G1 X275.447 Y99.746 E3.28097
G1 X276.218 Y100.217 E3.31102
G1 X276.811 Y100.649 E3.33542
G1 X277.499 Y101.191 E3.36455
G1 X278.077 Y101.665 E3.38941
G1 X278.606 Y102.11 E3.41241
G1 X279.271 Y102.722 E3.44246
G1 X279.803 Y103.299 E3.46857
G1 X280.366 Y103.963 E3.49752
G1 X280.785 Y104.472 E3.51945
G1 X281.239 Y105.037 E3.54356
G1 X281.773 Y105.765 E3.57359
G1 X282.202 Y106.468 E3.60098
G1 X282.622 Y107.226 E3.6298
G1 X282.928 Y107.798 E3.65138
G1 X283.275 Y108.467 E3.67644
G1 X283.655 Y109.286 E3.70647
G1 X283.93 Y110.038 E3.7331
G1 X284.185 Y110.834 E3.7609
G1 X284.391 Y111.513 E3.7845
G1 X284.589 Y112.199 E3.80825
G1 X284.801 Y113.077 E3.83829
G1 X284.918 Y113.829 E3.86361
G1 X285.018 Y114.683 E3.8922
G1 X285.093 Y115.445 E3.91767
G1 X285.148 Y116.084 E3.939
G1 X285.186 Y116.987 E3.96906
G1 X285.158 Y117.717 E3.99336
G1 X285.094 Y118.548 E4.02108
G1 X285.015 Y119.364 E4.04835
G1 X284.944 Y120.013 E4.07006
G1 X284.806 Y120.906 E4.10012
G1 X284.633 Y121.63 E4.12488
G1 X284.406 Y122.442 E4.15292
G1 X284.182 Y123.184 E4.1787
G1 X283.957 Y123.892 E4.20341
G1 X283.646 Y124.74 E4.23345
G1 X283.318 Y125.447 E4.25937
G1 X282.948 Y126.167 E4.28629
G1 X282.595 Y126.828 E4.31122
G1 X282.249 Y127.456 E4.33507
G1 X281.778 Y128.227 E4.36512
G1 X281.262 Y128.929 E4.39409
G1 X280.33 Y130.082 E4.4434
G1 X279.882 Y130.614 E4.46654
G1 X279.27 Y131.279 E4.4966
G1 X278.693 Y131.81 E4.52268
G1 X278.041 Y132.364 E4.55113
G1 X277.498 Y132.81 E4.5745
G1 X276.935 Y133.26 E4.59848
G1 X276.206 Y133.792 E4.62849
G1 X275.543 Y134.196 E4.65432
G1 X274.813 Y134.602 E4.6821
G1 X274.157 Y134.953 E4.70684
G1 X273.527 Y135.28 E4.73045
G1 X272.708 Y135.66 E4.76048
G1 X271.938 Y135.941 E4.78774
G1 X271.098 Y136.209 E4.81707
G1 X270.449 Y136.404 E4.83961
G1 X269.794 Y136.592 E4.86227
G1 X268.916 Y136.803 E4.89231
G1 X268.209 Y136.914 E4.91611
G1 X267.406 Y137.009 E4.94301
G1 X266.553 Y137.094 E4.97152
G1 X265.913 Y137.149 E4.99288
G1 X265.333 Y137.182 E5.0122
G1 X264.692 Y137.196 E5.03353
G1 X67.001 Y137.2 E11.60876
G1 X65.554 Y137.199 E11.65689
G1 X65.021 Y137.191 E11.67461
G1 X64.361 Y137.16 E11.69659
G1 X62.96 Y137.048 E11.74334
G1 X62.636 Y137.016 E11.75417
G1 X61.932 Y136.937 E11.77773
G1 X61.039 Y136.797 E11.80779
G1 X60.274 Y136.61 E11.83398
G1 X59.562 Y136.407 E11.85861
G1 X58.821 Y136.183 E11.88436
G1 X58.112 Y135.958 E11.9091
G1 X57.264 Y135.647 E11.93914
G1 X56.557 Y135.319 E11.96506
G1 X55.793 Y134.927 E11.99362
G1 X55.163 Y134.59 E12.01738
G1 X54.544 Y134.249 E12.04089
G1 X53.773 Y133.779 E12.07092
G1 X53.127 Y133.306 E12.09755
G1 X52.462 Y132.777 E12.12582
G1 X51.918 Y132.33 E12.14923
G1 X51.386 Y131.882 E12.17237
G1 X50.721 Y131.27 E12.20243
G1 X50.19 Y130.693 E12.22851
G1 X49.635 Y130.039 E12.25704
G1 X49.186 Y129.493 E12.28055
G1 X48.74 Y128.935 E12.30431
G1 X48.208 Y128.206 E12.33432
G1 X47.794 Y127.524 E12.36086
G1 X47.378 Y126.774 E12.38938
G1 X47.078 Y126.214 E12.41051
G1 X46.732 Y125.549 E12.43545
G1 X46.351 Y124.73 E12.46549
G1 X46.069 Y123.962 E12.4927
G1 X45.813 Y123.161 E12.52067
G1 X45.617 Y122.514 E12.54315
G1 X45.416 Y121.825 E12.56703
G1 X45.202 Y120.947 E12.59708
G1 X45.073 Y120.122 E12.62486
G1 X44.981 Y119.299 E12.6524
G1 X44.907 Y118.555 E12.67727
G1 X44.852 Y117.916 E12.6986
G1 X44.814 Y117.013 E12.72866
G1 X44.843 Y116.274 E12.75326
G1 X44.91 Y115.415 E12.78192
G1 X44.988 Y114.613 E12.80872
G1 X45.057 Y113.984 E12.82976
G1 X45.195 Y113.091 E12.85982
G1 X45.372 Y112.352 E12.88509
G1 X45.621 Y111.469 E12.9156
G1 X45.817 Y110.821 E12.93812
G1 X46.042 Y110.112 E12.96286
G1 X46.353 Y109.264 E12.9929
G1 X46.687 Y108.545 E13.01927
G1 X47.091 Y107.759 E13.04867
G1 X47.405 Y107.172 E13.07081
G1 X47.751 Y106.544 E13.09465
G1 X48.222 Y105.773 E13.1247
G1 X48.698 Y105.122 E13.15153
G1 X49.241 Y104.44 E13.18052
G1 X49.669 Y103.919 E13.20295
G1 X50.116 Y103.388 E13.22603
G1 X50.727 Y102.724 E13.25605
G1 X51.309 Y102.188 E13.28236
G1 X51.968 Y101.629 E13.3111
G1 X52.494 Y101.197 E13.33374
G1 X53.056 Y100.747 E13.35769
G1 X53.785 Y100.214 E13.38772
G1 X54.234 Y99.932 E13.40536
G1 X55.238 Y99.338 E13.44416
G1 X57.456 Y97.984 E13.53059
G1 X59.566 Y96.612 E13.6143
G1 X61.681 Y95.15 E13.69982
G1 X63.742 Y93.639 E13.78481
G1 X65.709 Y92.109 E13.8677
G1 X67.701 Y90.466 E13.95358
G1 X69.586 Y88.819 E14.03684
G1 X71.471 Y87.077 E14.1222
G1 X73.267 Y85.321 E14.20575
G1 X75.048 Y83.479 E14.29097
G1 X76.751 Y81.613 E14.37499
G1 X78.422 Y79.675 E14.4601
G1 X80.036 Y77.693 E14.54512
G1 X80.28 Y77.385 E14.55818
G1 X80.996 Y76.574 E14.59417
G1 X81.095 Y76.473 E14.59887
G1 X82.956 Y74.546 E14.68797
G1 X84.688 Y72.65 E14.77338
G1 X86.331 Y70.743 E14.85711
G1 X87.934 Y68.774 E14.94155
G1 X89.496 Y66.741 E15.02682
G1 X90.965 Y64.711 E15.11017
G1 X92.404 Y62.6 E15.19514
G1 X93.77 Y60.471 E15.27927
G1 X95.1 Y58.262 E15.36503
G1 X96.2 Y56.329 E15.43901
G1 X96.613 Y55.637 E15.46581
G1 X97.002 Y55.016 E15.49018
G1 X97.628 Y54.126 E15.52637
G1 X98.206 Y53.398 E15.55729
G1 X98.693 Y52.816 E15.58253
G1 X99.424 Y52.031 E15.61821
G1 X100.048 Y51.434 E15.64693
G1 X100.631 Y50.903 E15.67316
G1 X101.474 Y50.214 E15.70937
G1 X101.989 Y49.837 E15.7306
G1 X102.256 Y49.648 E15.74148
G1 X102.854 Y49.239 E15.76558
G1 X103.731 Y48.701 E15.7998
G1 X104.232 Y48.428 E15.81877
G1 X104.536 Y48.269 E15.83018
G1 X105.255 Y47.908 E15.85694
G1 X106.247 Y47.475 E15.89294
G1 X107.076 Y47.169 E15.92233
G1 X107.84 Y46.909 E15.94917
G1 X108.88 Y46.615 E15.98512
G1 X109.425 Y46.492 E16.0037
G1 X109.714 Y46.432 E16.01352
G1 X110.476 Y46.283 E16.03935
G1 X111.54 Y46.132 E16.07509
G1 X112.39 Y46.062 E16.10346
G1 X112.909 Y46.032 E16.12075
G1 X113.29 Y46.017 E16.13343
G1 X114.82 Y45.988 E16.18433
G1 X143.252 Y45.989 E17.12998
G1 X143.666 Y45.995 E17.14375
G1 X144.013 Y46.006 E17.1553
G1 X145.492 Y46.08 E17.20455
G1 X146.557 Y46.151 E17.24005
G1 X149.164 Y46.272 E17.32685
G1 X151.694 Y46.317 E17.41101
G1 X154.231 Y46.29 E17.4954
G1 X156.762 Y46.193 E17.57964
G1 X159.289 Y46.024 E17.66388
G1 X161.864 Y45.778 E17.74991
G1 X164.184 Y45.497 E17.82764
G1 X164.588 Y45.456 E17.84115
G1 X165.322 Y45.4 E17.86563
G1 X165.769 Y45.375 E17.88052
G1 X166.131 Y45.361 E17.89257
G1 X167.661 Y45.332 E17.94347
G1 X196.088 Y45.333 E18.88895
G1 X196.86 Y45.35 E18.91464
G1 F1500 E12.41464
;MESH:Beam_Link.stl
G0 F6000 X163.775 Y55.262
G0 X162.403 Y55.749
G0 X161.111 Y56.419
G0 X159.921 Y57.258
G0 X158.857 Y58.251
G0 X157.938 Y59.381
G0 X157.182 Y60.625
G0 X156.602 Y61.96
G0 X156.466 Y62.469
G0 X146.269 Y66.792
G0 X147.691 Y67.144
G0 X146.537 Y68.604
G0 X145.878 Y69.185
G0 X144.269 Y69.964
;TYPE:WALL-INNER
G1 F1500 E18.91464
G1 F1200 X145.159 Y69.745 E18.94512
G1 X145.971 Y69.319 E18.97562
G1 X146.659 Y68.711 E19.00616
G1 X147.179 Y67.956 E19.03665
G1 X147.505 Y67.097 E19.06721
G1 X147.615 Y66.188 E19.09766
G1 X147.505 Y65.278 E19.12815
G1 X147.179 Y64.419 E19.15871
G1 X146.659 Y63.665 E19.18917
G1 X145.971 Y63.056 E19.21973
G1 X145.159 Y62.63 E19.25023
G1 X144.269 Y62.411 E19.28071
G1 X143.352 Y62.411 E19.31121
G1 X142.462 Y62.63 E19.3417
G1 X141.65 Y63.056 E19.3722
G1 X140.962 Y63.665 E19.40276
G1 X140.442 Y64.419 E19.43322
G1 X140.117 Y65.278 E19.46377
G1 X140.007 Y66.188 E19.49425
G1 X140.117 Y67.097 E19.52471
G1 X140.442 Y67.956 E19.55525
G1 X140.962 Y68.711 E19.58575
G1 X141.65 Y69.319 E19.61628
G1 X142.462 Y69.745 E19.64678
G1 X143.352 Y69.964 E19.67727
G1 X144.269 Y69.964 E19.70777
G0 F6000 X144.22 Y69.564
;TYPE:WALL-OUTER
G1 F1200 X145.016 Y69.368 E19.73503
G1 X145.742 Y68.987 E19.7623
G1 X146.357 Y68.444 E19.78959
G1 X146.822 Y67.769 E19.81685
G1 X147.114 Y67.001 E19.84418
G1 X147.212 Y66.188 E19.87141
G1 X147.114 Y65.374 E19.89868
G1 X146.822 Y64.606 E19.92601
G1 X146.357 Y63.932 E19.95325
G1 X145.742 Y63.388 E19.98056
G1 X145.016 Y63.007 E20.00783
G1 X144.22 Y62.811 E20.03509
G1 X143.401 Y62.811 E20.06233
G1 X142.605 Y63.007 E20.0896
G1 X141.879 Y63.388 E20.11687
G1 X141.264 Y63.932 E20.14418
G1 X140.799 Y64.606 E20.17141
G1 X140.508 Y65.374 E20.19873
G1 X140.41 Y66.188 E20.226
G1 X140.508 Y67.001 E20.25323
G1 X140.799 Y67.769 E20.28055
G1 X141.264 Y68.444 E20.30781
G1 X141.879 Y68.987 E20.3351
G1 X142.605 Y69.368 E20.36237
G1 X143.401 Y69.564 E20.38963
G1 X144.22 Y69.564 E20.41687
G0 F6000 X144.273 Y70
G1 F1500 E13.91687
G0 F6000 X141.541 Y69.477
G0 X142.372 Y68.271
G0 X115.311 Y68.229
G0 X116.06 Y69.478
G0 X114.392 Y69.946
;TYPE:WALL-INNER
G1 F1500 E20.41687
G1 F1200 X114.543 Y69.912 E20.42202
G1 X115.212 Y69.72 E20.44517
G1 X115.359 Y69.657 E20.45049
G1 X115.96 Y69.316 E20.47347
G1 X116.093 Y69.227 E20.4788
G1 X116.185 Y69.143 E20.48294
G1 X116.685 Y68.678 E20.50565
G1 X116.812 Y68.5 E20.51292
G1 X117.189 Y67.932 E20.5356
G1 X117.277 Y67.713 E20.54345
G1 X117.506 Y67.084 E20.56571
G1 X117.613 Y66.208 E20.59506
G1 X117.605 Y66.053 E20.60023
G1 X117.514 Y65.329 E20.6245
G1 X117.442 Y65.097 E20.63257
G1 X117.233 Y64.538 E20.65242
G1 X117.107 Y64.305 E20.66123
G1 X116.792 Y63.841 E20.67989
G1 X116.611 Y63.619 E20.68941
G1 X116.227 Y63.273 E20.70661
G1 X115.995 Y63.074 E20.71677
G1 X115.267 Y62.674 E20.7444
G1 X114.395 Y62.43 E20.77452
G1 X114.197 Y62.424 E20.7811
G1 X113.697 Y62.342 E20.79796
G1 X113.429 Y62.325 E20.80689
G1 X112.891 Y62.373 E20.82485
G1 X112.405 Y62.462 E20.84129
G1 X112.136 Y62.547 E20.85067
G1 X111.45 Y62.858 E20.87572
G1 X111.232 Y63.009 E20.88454
G1 X110.753 Y63.569 E20.90905
G1 X110.627 Y63.753 E20.91647
G1 X110.383 Y64.237 E20.9345
G1 X110.231 Y64.589 E20.94725
G1 X110.159 Y64.858 E20.95651
G1 X110.035 Y65.61 E20.98186
G1 X110.051 Y65.812 E20.9886
G1 X110.017 Y66.47 E21.01051
G1 X110.187 Y67.322 E21.03941
G1 X110.237 Y67.474 E21.04473
G1 X110.563 Y68.161 E21.07002
G1 X110.657 Y68.3 E21.07561
G1 X111.126 Y68.88 E21.10041
G1 X111.229 Y68.969 E21.10494
G1 X111.795 Y69.407 E21.12875
G1 X111.915 Y69.481 E21.13343
G1 X112.687 Y69.822 E21.1615
G1 X113.535 Y69.981 E21.1902
G1 X113.683 Y69.978 E21.19512
G1 X114.392 Y69.946 E21.21873
G0 F6000 X114.338 Y69.548
;TYPE:WALL-OUTER
G1 F1200 X114.444 Y69.524 E21.22234
G1 X115.078 Y69.342 E21.24428
G1 X115.182 Y69.298 E21.24804
G1 X115.75 Y68.975 E21.26977
G1 X115.846 Y68.911 E21.27361
G1 X115.914 Y68.849 E21.27667
G1 X116.383 Y68.412 E21.29799
G1 X116.483 Y68.273 E21.30369
G1 X116.833 Y67.745 E21.32476
G1 X116.903 Y67.57 E21.33102
G1 X117.115 Y66.99 E21.35156
G1 X117.212 Y66.195 E21.3782
G1 X117.206 Y66.089 E21.38173
G1 X117.121 Y65.414 E21.40436
G1 X117.063 Y65.226 E21.4109
G1 X116.868 Y64.704 E21.42944
G1 X116.765 Y64.513 E21.43666
G1 X116.471 Y64.08 E21.45406
G1 X116.321 Y63.896 E21.46196
G1 X115.963 Y63.574 E21.47797
G1 X115.766 Y63.405 E21.48661
G1 X115.115 Y63.047 E21.51132
G1 X114.334 Y62.828 E21.5383
G1 X114.157 Y62.823 E21.54418
G1 X113.652 Y62.74 E21.56121
G1 X113.434 Y62.726 E21.56847
G1 X112.945 Y62.77 E21.5848
G1 X112.501 Y62.851 E21.59981
G1 X112.279 Y62.921 E21.60756
G1 X111.648 Y63.207 E21.6306
G1 X111.502 Y63.308 E21.6365
G1 X111.071 Y63.813 E21.65858
G1 X110.972 Y63.957 E21.6644
G1 X110.746 Y64.406 E21.68112
G1 X110.61 Y64.721 E21.69253
G1 X110.55 Y64.943 E21.70018
G1 X110.438 Y65.627 E21.72323
G1 X110.452 Y65.801 E21.72903
G1 X110.419 Y66.441 E21.75035
G1 X110.575 Y67.221 E21.77681
G1 X110.609 Y67.326 E21.78048
G1 X110.911 Y67.961 E21.80386
G1 X110.979 Y68.061 E21.80789
G1 X111.415 Y68.601 E21.83097
G1 X111.483 Y68.66 E21.83396
G1 X112.023 Y69.078 E21.85668
G1 X112.101 Y69.126 E21.85972
G1 X112.806 Y69.437 E21.88535
G1 X113.568 Y69.58 E21.91114
G1 X113.67 Y69.578 E21.91453
G1 X114.338 Y69.548 E21.93677
G0 F6000 X114.396 Y69.984
G1 F1500 E15.43677
G0 F6000 X116.06 Y69.478
G0 X115.295 Y68.239
G0 X116.06 Y76.853
G0 X116.06 Y75.378
G0 X145.089 Y75.498
;TYPE:WALL-INNER
G1 F1500 E21.93677
G1 F1200 X143.784 Y75.588 E21.98028
G1 X113.837 Y75.588 E22.97632
G1 X112.532 Y75.498 E23.01983
G1 X111.269 Y75.236 E23.06273
G1 X110.07 Y74.81 E23.10505
G1 X108.926 Y74.216 E23.14792
G1 X107.88 Y73.479 E23.19048
G1 X106.938 Y72.599 E23.23336
G1 X106.137 Y71.615 E23.27556
G1 X105.464 Y70.506 E23.3187
G1 X104.956 Y69.339 E23.36104
G1 X104.608 Y68.095 E23.404
G1 X104.434 Y66.832 E23.44641
G1 X104.434 Y65.543 E23.48928
G1 X104.608 Y64.28 E23.53168
G1 X104.956 Y63.036 E23.57465
G1 X105.464 Y61.869 E23.61698
G1 X106.137 Y60.76 E23.66012
G1 X106.938 Y59.776 E23.70233
G1 X107.88 Y58.896 E23.7452
G1 X108.926 Y58.159 E23.78776
G1 X110.07 Y57.565 E23.83063
G1 X111.269 Y57.139 E23.87295
G1 X112.531 Y56.877 E23.91582
G1 X113.837 Y56.788 E23.95936
G1 X143.785 Y56.788 E24.95544
G1 X145.09 Y56.877 E24.99894
G1 X146.353 Y57.139 E25.04184
G1 X147.552 Y57.565 E25.08416
G1 X148.695 Y58.159 E25.12701
G1 X149.741 Y58.896 E25.16957
G1 X150.683 Y59.776 E25.21244
G1 X151.484 Y60.76 E25.25464
G1 X152.157 Y61.869 E25.29779
G1 X152.665 Y63.036 E25.34012
G1 X153.013 Y64.28 E25.38308
G1 X153.187 Y65.543 E25.42549
G1 X153.187 Y66.832 E25.46836
G1 X153.013 Y68.095 E25.51077
G1 X152.665 Y69.339 E25.55373
G1 X152.157 Y70.506 E25.59606
G1 X151.484 Y71.615 E25.63921
G1 X150.683 Y72.599 E25.68141
G1 X149.741 Y73.479 E25.72428
G1 X148.695 Y74.216 E25.76684
G1 X147.552 Y74.81 E25.80969
G1 X146.353 Y75.236 E25.85201
G1 X145.089 Y75.498 E25.89494
G0 F6000 X145.146 Y75.895
;TYPE:WALL-OUTER
G1 F1200 X143.797 Y75.988 E25.93992
