;FLAVOR:Marlin
;TIME:13673
;Filament used: 12.3174m
;Layer height: 0.2
;MINX:44.814
;MINY:96.8
;MINZ:0.2
;MAXX:285.186
;MAXY:200.132
;MAXZ:15
;Generated with Cura_SteamEngine 4.6.1
M140 S50
M105
M190 S50
M104 S200
M105
M109 S200
M82 ;absolute extrusion mode
M201 X500.00 Y500.00 Z100.00 E5000.00 ;Setup machine max acceleration
M203 X500.00 Y500.00 Z10.00 E50.00 ;Setup machine max feedrate
M204 P500.00 R1000.00 T500.00 ;Setup Print/Retract/Travel acceleration
M205 X8.00 Y8.00 Z0.40 E5.00 ;Setup Jerk
M220 S100 ;Reset Feedrate
M221 S100 ;Reset Flowrate

G28 ;Home
M420 S1 Z2 ;Enable ABL using saved Mesh and Fade Height

G92 E0 ;Reset Extruder
G1 Z2.0 F3000 ;Move Z Axis up
G1 X10.1 Y20 Z0.28 F5000.0 ;Move to start position
G1 X10.1 Y200.0 Z0.28 F1500.0 E15 ;Draw the first line
G1 X10.4 Y200.0 Z0.28 F5000.0 ;Move to side a little
G1 X10.4 Y20 Z0.28 F1500.0 E30 ;Draw the second line
G92 E0 ;Reset Extruder
G1 Z2.0 F3000 ;Move Z Axis up

G92 E0
G92 E0
G1 F1500 E-6.5
;LAYER_COUNT:75
;LAYER:0
M107
G0 F6000 X264.948 Y96.808 Z0.2
;TYPE:SKIRT
G1 F1500 E0
G1 F1200 X265.604 Y96.838 E0.02184
G1 X267.17 Y96.965 E0.0741
G1 X268.068 Y97.064 E0.10415
G1 X268.96 Y97.203 E0.13417
G1 X269.769 Y97.4 E0.16187
G1 X270.581 Y97.635 E0.18998
G1 X271.229 Y97.832 E0.21251
G1 X271.901 Y98.045 E0.23595
G1 X272.749 Y98.355 E0.26599
G1 X273.488 Y98.699 E0.2931
G1 X274.198 Y99.066 E0.31968
G1 X274.828 Y99.403 E0.34344
G1 X275.449 Y99.746 E0.36704
G1 X276.219 Y100.218 E0.39708
G1 X276.811 Y100.649 E0.42143
G1 X277.499 Y101.191 E0.45056
G1 X278.077 Y101.665 E0.47543
G1 X278.606 Y102.11 E0.49842
G1 X279.271 Y102.722 E0.52848
G1 X279.803 Y103.299 E0.55458
G1 X280.366 Y103.963 E0.58354
G1 X280.785 Y104.472 E0.60546
G1 X281.239 Y105.037 E0.62957
G1 X281.773 Y105.765 E0.6596
G1 X282.202 Y106.468 E0.68699
G1 X282.622 Y107.226 E0.71581
G1 X282.928 Y107.798 E0.73739
G1 X283.275 Y108.467 E0.76246
G1 X283.655 Y109.286 E0.79248
G1 X283.93 Y110.038 E0.81912
G1 X284.185 Y110.834 E0.84692
G1 X284.391 Y111.513 E0.87052
G1 X284.589 Y112.199 E0.89426
G1 X284.801 Y113.077 E0.92431
G1 X284.918 Y113.829 E0.94962
G1 X285.018 Y114.683 E0.97822
G1 X285.093 Y115.445 E1.00368
G1 X285.148 Y116.084 E1.02502
G1 X285.186 Y116.987 E1.05508
G1 X285.158 Y117.717 E1.07937
G1 X285.094 Y118.548 E1.10709
G1 X285.015 Y119.364 E1.13436
G1 X284.944 Y120.013 E1.15608
G1 X284.806 Y120.906 E1.18613
G1 X284.633 Y121.63 E1.21089
G1 X284.406 Y122.442 E1.23893
G1 X284.182 Y123.184 E1.26471
G1 X283.957 Y123.892 E1.28942
G1 X283.646 Y124.74 E1.31946
G1 X283.318 Y125.447 E1.34538
G1 X282.948 Y126.167 E1.37231
G1 X282.595 Y126.828 E1.39723
G1 X282.249 Y127.456 E1.42108
G1 X281.778 Y128.227 E1.45113
G1 X281.262 Y128.929 E1.48011
G1 X280.33 Y130.082 E1.52942
G1 X279.882 Y130.614 E1.55255
G1 X279.27 Y131.279 E1.58261
G1 X278.693 Y131.81 E1.60869
G1 X278.041 Y132.364 E1.63715
G1 X277.498 Y132.81 E1.66052
G1 X276.935 Y133.26 E1.68449
G1 X276.206 Y133.792 E1.71451
G1 X275.543 Y134.196 E1.74033
G1 X274.813 Y134.602 E1.76811
G1 X274.167 Y134.948 E1.79249
G1 X273.533 Y135.278 E1.81626
G1 X272.97 Y135.549 E1.83704
G1 X271.722 Y136.104 E1.88247
G1 X269.359 Y137.201 E1.96912
G1 X267.092 Y138.333 E2.0534
G1 X264.84 Y139.538 E2.13835
G1 X262.633 Y140.801 E2.22292
G1 X260.466 Y142.123 E2.30735
G1 X258.318 Y143.517 E2.39252
G1 X256.267 Y144.935 E2.47545
G1 X254.195 Y146.454 E2.5609
G1 X252.188 Y148.016 E2.64549
G1 X250.247 Y149.616 E2.72915
G1 X248.306 Y151.31 E2.81484
G1 X246.464 Y153.011 E2.89823
G1 X244.646 Y154.79 E2.98283
G1 X242.873 Y156.623 E3.06765
G1 X241.159 Y158.501 E3.15222
G1 X239.498 Y160.425 E3.23676
G1 X237.903 Y162.386 E3.32083
G1 X236.35 Y164.407 E3.4056
G1 X234.869 Y166.451 E3.48956
G1 X233.44 Y168.546 E3.5739
G1 X232.048 Y170.716 E3.65965
G1 X230.752 Y172.869 E3.74323
G1 X229.523 Y175.047 E3.82641
G1 X228.426 Y177.151 E3.90533
G1 X227.672 Y178.559 E3.95845
G1 X227.304 Y179.203 E3.98312
G1 X226.956 Y179.792 E4.00588
G1 X226.37 Y180.674 E4.0411
G1 X225.9 Y181.307 E4.06732
G1 X225.582 Y181.718 E4.0846
G1 X225.144 Y182.272 E4.10809
G1 X224.35 Y183.164 E4.14781
G1 X223.474 Y184.034 E4.18888
G1 X222.949 Y184.532 E4.21294
G1 X222.056 Y185.287 E4.25184
G1 X221.099 Y186.002 E4.29157
G1 X220.498 Y186.431 E4.31613
G1 X219.524 Y187.046 E4.35444
G1 X218.368 Y187.678 E4.39826
G1 X217.797 Y187.974 E4.41965
G1 X216.774 Y188.435 E4.45697
G1 X215.511 Y188.911 E4.50187
G1 X214.898 Y189.126 E4.52347
G1 X213.839 Y189.434 E4.56015
G1 X212.97 Y189.635 E4.58982
G1 X212.521 Y189.729 E4.60508
G1 X211.594 Y189.91 E4.63649
G1 X210.724 Y190.057 E4.66584
G1 X209.394 Y190.266 E4.71062
G1 X206.883 Y190.732 E4.79556
G1 X204.389 Y191.268 E4.8804
G1 X201.936 Y191.869 E4.9644
G1 X199.472 Y192.548 E5.04941
G1 X197.047 Y193.289 E5.13375
G1 X194.625 Y194.105 E5.21875
G1 X192.252 Y194.979 E5.30286
G1 X189.912 Y195.919 E5.38674
G1 X187.578 Y196.933 E5.47138
G1 X185.225 Y198.035 E5.5578
G1 X183.318 Y198.988 E5.6287
G1 X182.496 Y199.362 E5.65874
G1 X181.644 Y199.662 E5.68878
G1 X180.769 Y199.885 E5.71881
G1 X179.878 Y200.03 E5.74884
G1 X178.994 Y200.094 E5.77832
G1 X177.952 Y200.122 E5.81299
G1 X174.508 Y200.132 E5.92754
G1 X173.517 Y200.118 E5.9605
G1 X172.306 Y200.07 E6.00081
G1 X171.607 Y200.034 E6.02409
G1 X169.046 Y199.973 E6.10929
G1 X163.526 Y199.984 E6.29289
G1 X162.828 Y199.977 E6.31611
G1 X161.926 Y199.928 E6.34615
G1 X161.131 Y199.818 E6.37284
G1 X160.408 Y199.687 E6.39728
G1 X158.815 Y199.373 E6.45129
G1 X156.331 Y198.956 E6.53506
G1 X153.795 Y198.604 E6.62022
G1 X151.294 Y198.328 E6.7039
G1 X148.775 Y198.122 E6.78797
G1 X146.21 Y197.986 E6.8734
G1 X143.674 Y197.923 E6.95777
G1 X141.142 Y197.932 E7.04199
G1 X138.61 Y198.012 E7.12624
G1 X136.035 Y198.167 E7.21204
G1 X133.558 Y198.386 E7.29475
G1 X130.993 Y198.686 E7.38064
G1 X128.514 Y199.048 E7.46397
G1 X125.834 Y199.518 E7.55447
G1 X125.39 Y199.602 E7.5695
G1 X124.497 Y199.731 E7.59951
G1 X123.677 Y199.779 E7.62683
G1 X122.763 Y199.795 E7.65723
G1 X116.59 Y199.813 E7.86255
G1 X113.861 Y199.9 E7.95336
G1 X112.975 Y199.937 E7.98286
G1 X112.065 Y199.953 E8.01313
G1 X108.62 Y199.963 E8.12771
G1 X107.922 Y199.956 E8.15092
G1 X107.02 Y199.907 E8.18097
G1 X106.126 Y199.779 E8.21101
G1 X105.247 Y199.572 E8.24104
G1 X104.39 Y199.288 E8.27107
G1 X103.561 Y198.929 E8.30112
G1 X102.767 Y198.498 E8.33117
G1 X102.015 Y197.999 E8.36118
G1 X101.309 Y197.435 E8.39124
G1 X100.534 Y196.681 E8.4272
G1 X100.044 Y196.151 E8.45121
G1 X98.265 Y194.258 E8.53761
G1 X96.465 Y192.447 E8.62254
G1 X94.629 Y190.703 E8.70676
G1 X92.74 Y189.007 E8.7912
G1 X90.796 Y187.357 E8.876
G1 X88.823 Y185.778 E8.96005
G1 X88 Y185.148 E8.99453
G1 X87.308 Y184.568 E9.02456
G1 X86.632 Y183.949 E9.05504
G1 X86.324 Y183.655 E9.0692
G1 X85.651 Y182.985 E9.10079
G1 X84.844 Y182.08 E9.14112
G1 X84.11 Y181.146 E9.18063
G1 X83.661 Y180.548 E9.2055
G1 X83.07 Y179.669 E9.24073
G1 X82.472 Y178.653 E9.27994
G1 X82.14 Y178.059 E9.30257
G1 X81.775 Y177.341 E9.32936
G1 X81.662 Y177.095 E9.33837
G1 X81.515 Y176.759 E9.35057
G1 X81.23 Y176.07 E9.37537
G1 X80.966 Y175.408 E9.39907
G1 X80.756 Y174.833 E9.41943
G1 X80.399 Y173.754 E9.45723
G1 X79.529 Y171.247 E9.54549
G1 X78.629 Y168.869 E9.63006
G1 X77.677 Y166.557 E9.71322
G1 X76.629 Y164.203 E9.79892
G1 X75.548 Y161.948 E9.8821
G1 X74.364 Y159.648 E9.96814
G1 X73.151 Y157.446 E10.05175
G1 X71.864 Y155.261 E10.1361
G1 X70.514 Y153.106 E10.22068
G1 X69.092 Y150.976 E10.30586
G1 X67.641 Y148.929 E10.38931
G1 X66.097 Y146.876 E10.47475
G1 X64.528 Y144.909 E10.55843
G1 X62.892 Y142.973 E10.64274
G1 X61.175 Y141.055 E10.72836
G1 X59.452 Y139.235 E10.81172
G1 X57.631 Y137.417 E10.8973
G1 X55.809 Y135.699 E10.98059
G1 X53.905 Y134.002 E11.06542
G1 X51.389 Y131.885 E11.17479
G1 X50.724 Y131.273 E11.20484
G1 X50.192 Y130.695 E11.23097
G1 X49.635 Y130.039 E11.25959
G1 X49.186 Y129.493 E11.28311
G1 X48.74 Y128.935 E11.30687
G1 X48.208 Y128.206 E11.33688
G1 X47.794 Y127.524 E11.36342
G1 X47.378 Y126.774 E11.39194
G1 X47.078 Y126.214 E11.41307
G1 X46.732 Y125.549 E11.43801
G1 X46.351 Y124.73 E11.46805
G1 X46.069 Y123.962 E11.49526
G1 X45.813 Y123.161 E11.52323
G1 X45.617 Y122.514 E11.54571
G1 X45.416 Y121.825 E11.56959
G1 X45.202 Y120.947 E11.59964
G1 X45.073 Y120.122 E11.62742
G1 X44.981 Y119.299 E11.65496
G1 X44.907 Y118.555 E11.67983
G1 X44.852 Y117.916 E11.70116
G1 X44.814 Y117.013 E11.73122
G1 X44.843 Y116.274 E11.75582
G1 X44.91 Y115.415 E11.78448
G1 X44.988 Y114.613 E11.81128
G1 X45.057 Y113.984 E11.83232
G1 X45.195 Y113.091 E11.86238
G1 X45.372 Y112.352 E11.88765
G1 X45.621 Y111.469 E11.91816
G1 X45.817 Y110.821 E11.94068
G1 X46.042 Y110.112 E11.96542
G1 X46.353 Y109.264 E11.99546
G1 X46.687 Y108.545 E12.02183
G1 X47.091 Y107.759 E12.05122
G1 X47.405 Y107.172 E12.07337
G1 X47.751 Y106.544 E12.09721
G1 X48.222 Y105.773 E12.12726
G1 X48.698 Y105.122 E12.15409
G1 X49.241 Y104.44 E12.18308
G1 X49.669 Y103.919 E12.20551
G1 X50.116 Y103.388 E12.22859
G1 X50.727 Y102.724 E12.25861
G1 X51.309 Y102.188 E12.28492
G1 X51.968 Y101.629 E12.31366
G1 X52.492 Y101.198 E12.33623
G1 X53.055 Y100.747 E12.36022
G1 X53.784 Y100.214 E12.39026
G1 X54.481 Y99.79 E12.41739
G1 X55.226 Y99.378 E12.44571
G1 X55.791 Y99.075 E12.46703
G1 X56.453 Y98.731 E12.49185
G1 X57.272 Y98.351 E12.52188
G1 X58.021 Y98.076 E12.54841
G1 X58.834 Y97.815 E12.57681
G1 X59.491 Y97.616 E12.59965
G1 X60.178 Y97.416 E12.62344
G1 X61.055 Y97.202 E12.65347
G1 X61.858 Y97.076 E12.6805
G1 X62.684 Y96.982 E12.70815
G1 X63.445 Y96.907 E12.73359
G1 X64.083 Y96.852 E12.75489
G1 X64.666 Y96.818 E12.77431
G1 X65.307 Y96.804 E12.79563
G1 X262.999 Y96.8 E19.3709
G1 X264.431 Y96.801 E19.41853
G1 X264.948 Y96.808 E19.43572
G1 F1500 E12.93572
;MESH:Beam_Link.stl
G0 F6000 X273.856 Y111.056
G0 X274.845 Y112.899
G0 X275.456 Y114.898
G0 X275.665 Y116.977
G0 X275.466 Y119.058
G0 X274.863 Y121.061
G0 X273.881 Y122.908
G0 X272.557 Y124.526
G0 X270.944 Y125.856
G0 X269.083 Y126.855
G0 X267.101 Y127.456
G0 X265.054 Y127.661
G0 X147.917 Y127.633
G0 X93.223 Y142.04
G0 X94.518 Y142.72
G0 X93.034 Y143.878
G0 X91.551 Y144.645
;TYPE:WALL-INNER
G1 F1500 E19.43572
G1 F1200 X91.703 Y144.611 E19.4409
G1 X92.37 Y144.419 E19.46399
G1 X92.517 Y144.356 E19.46931
G1 X93.119 Y144.015 E19.49232
G1 X93.252 Y143.926 E19.49764
G1 X93.344 Y143.842 E19.50179
G1 X93.844 Y143.377 E19.5245
G1 X93.971 Y143.199 E19.53177
G1 X94.348 Y142.631 E19.55444
G1 X94.436 Y142.412 E19.56229
G1 X94.666 Y141.783 E19.58457
G1 X94.771 Y140.907 E19.61391
G1 X94.763 Y140.753 E19.61904
G1 X94.673 Y140.029 E19.64331
G1 X94.601 Y139.795 E19.65145
G1 X94.392 Y139.237 E19.67127
G1 X94.266 Y139.004 E19.68008
G1 X93.951 Y138.54 E19.69873
G1 X93.77 Y138.316 E19.70831
G1 X93.159 Y137.777 E19.73541
G1 X92.76 Y137.553 E19.75063
G1 X92.425 Y137.373 E19.76328
G1 X91.554 Y137.129 E19.79336
G1 X91.356 Y137.123 E19.79995
G1 X90.856 Y137.041 E19.8168
G1 X90.588 Y137.024 E19.82573
G1 X90.049 Y137.072 E19.84373
G1 X89.564 Y137.161 E19.86013
G1 X89.295 Y137.246 E19.86952
G1 X88.609 Y137.557 E19.89457
G1 X88.391 Y137.708 E19.90339
G1 X87.912 Y138.268 E19.9279
G1 X87.786 Y138.452 E19.93532
G1 X87.543 Y138.935 E19.9533
G1 X87.39 Y139.287 E19.96606
G1 X87.316 Y139.558 E19.97541
G1 X87.194 Y140.311 E20.00078
G1 X87.21 Y140.511 E20.00745
G1 X87.176 Y141.169 E20.02937
G1 X87.346 Y142.024 E20.05836
G1 X87.396 Y142.176 E20.06368
G1 X87.721 Y142.859 E20.08884
G1 X87.816 Y142.999 E20.09447
G1 X88.285 Y143.579 E20.11928
G1 X88.388 Y143.668 E20.1238
G1 X88.954 Y144.106 E20.14761
G1 X89.074 Y144.18 E20.1523
G1 X89.846 Y144.521 E20.18037
G1 X90.693 Y144.68 E20.20903
G1 X90.842 Y144.677 E20.21399
G1 X91.551 Y144.645 E20.23759
G0 F6000 X91.497 Y144.247
;TYPE:WALL-OUTER
G1 F1200 X91.603 Y144.223 E20.24121
G1 X92.236 Y144.041 E20.26311
G1 X92.34 Y143.997 E20.26687
G1 X92.909 Y143.674 E20.28863
G1 X93.005 Y143.61 E20.29247
G1 X93.073 Y143.548 E20.29553
G1 X93.542 Y143.111 E20.31685
G1 X93.642 Y142.972 E20.32255
G1 X93.992 Y142.444 E20.34361
G1 X94.062 Y142.269 E20.34988
G1 X94.274 Y141.689 E20.37042
G1 X94.37 Y140.894 E20.39706
G1 X94.364 Y140.789 E20.40055
G1 X94.28 Y140.113 E20.42321
G1 X94.222 Y139.924 E20.42979
G1 X94.027 Y139.403 E20.44829
G1 X93.924 Y139.212 E20.45551
G1 X93.63 Y138.779 E20.47291
G1 X93.48 Y138.594 E20.48084
G1 X92.926 Y138.105 E20.50541
G1 X92.567 Y137.904 E20.5191
G1 X92.274 Y137.746 E20.53017
G1 X91.493 Y137.527 E20.55715
G1 X91.316 Y137.522 E20.56304
G1 X90.811 Y137.439 E20.58006
G1 X90.593 Y137.425 E20.58732
G1 X90.103 Y137.469 E20.60369
G1 X89.66 Y137.55 E20.61867
G1 X89.438 Y137.62 E20.62641
G1 X88.807 Y137.906 E20.64945
G1 X88.661 Y138.007 E20.65536
G1 X88.23 Y138.512 E20.67744
G1 X88.131 Y138.656 E20.68325
G1 X87.905 Y139.105 E20.69997
G1 X87.768 Y139.42 E20.71139
G1 X87.708 Y139.642 E20.71904
G1 X87.597 Y140.327 E20.74212
G1 X87.611 Y140.5 E20.7479
G1 X87.578 Y141.14 E20.76921
G1 X87.733 Y141.921 E20.79569
G1 X87.768 Y142.026 E20.79937
G1 X88.069 Y142.66 E20.82272
G1 X88.137 Y142.76 E20.82674
G1 X88.574 Y143.3 E20.84984
G1 X88.642 Y143.359 E20.85284
G1 X89.182 Y143.777 E20.87555
G1 X89.26 Y143.825 E20.8786
G1 X89.965 Y144.136 E20.90423
G1 X90.726 Y144.279 E20.92998
G1 X90.829 Y144.277 E20.93341
G1 X91.497 Y144.247 E20.95565
G0 F6000 X91.555 Y144.683
G1 F1500 E14.45565
G0 F6000 X93.473 Y143.982
G0 X92.489 Y142.91
G0 X119.074 Y142.565
G0 X117.977 Y143.537
G0 X119.679 Y144.292
G0 X120.532 Y144.502
G0 X122.318 Y144.444
;TYPE:WALL-INNER
G1 F1500 E20.95565
G1 F1200 X123.13 Y144.018 E20.98614
G1 X123.816 Y143.41 E21.01663
G1 X124.338 Y142.655 E21.04716
G1 X124.663 Y141.796 E21.07771
G1 X124.773 Y140.887 E21.10816
G1 X124.663 Y139.977 E21.13865
G1 X124.338 Y139.118 E21.1692
G1 X123.816 Y138.364 E21.1997
G1 X123.13 Y137.755 E21.23021
G1 X122.318 Y137.33 E21.26069
G1 X121.428 Y137.11 E21.29118
G1 X120.511 Y137.11 E21.32168
G1 X119.621 Y137.33 E21.35218
G1 X118.808 Y137.755 E21.38269
G1 X118.121 Y138.364 E21.41322
G1 X117.601 Y139.118 E21.44369
G1 X117.275 Y139.977 E21.47425
G1 X117.165 Y140.887 E21.50473
G1 X117.275 Y141.796 E21.53519
G1 X117.601 Y142.655 E21.56575
G1 X118.121 Y143.41 E21.59624
G1 X118.808 Y144.018 E21.62675
G1 X119.621 Y144.444 E21.65728
G1 X120.511 Y144.663 E21.68776
G1 X121.428 Y144.663 E21.71826
G1 X122.318 Y144.444 E21.74875
G0 F6000 X122.175 Y144.067
;TYPE:WALL-OUTER
G1 F1200 X122.901 Y143.686 E21.77602
G1 X123.515 Y143.143 E21.80328
G1 X123.981 Y142.468 E21.83056
G1 X124.272 Y141.7 E21.85787
G1 X124.37 Y140.887 E21.88511
G1 X124.272 Y140.073 E21.91238
G1 X123.981 Y139.305 E21.9397
G1 X123.515 Y138.631 E21.96695
G1 X122.901 Y138.087 E21.99423
G1 X122.175 Y137.707 E22.02149
G1 X121.379 Y137.51 E22.04876
G1 X120.56 Y137.51 E22.076
G1 X119.764 Y137.707 E22.10328
G1 X119.037 Y138.087 E22.13056
G1 X118.423 Y138.631 E22.15784
G1 X117.958 Y139.305 E22.18508
G1 X117.666 Y140.073 E22.21241
G1 X117.568 Y140.887 E22.23968
G1 X117.666 Y141.7 E22.26691
G1 X117.958 Y142.468 E22.29424
G1 X118.423 Y143.143 E22.3215
G1 X119.037 Y143.686 E22.34876
G1 X119.764 Y144.067 E22.37606
G1 X120.56 Y144.263 E22.40333
G1 X121.379 Y144.263 E22.43057
G1 X122.175 Y144.067 E22.45784
G0 F6000 X122.33 Y144.478
G1 F1500 E15.95784
G0 F6000 X122.221 Y144.684
G0 X121.869 Y143.253
G0 X124.444 Y150.945
G0 X123.951 Y149.556
G0 X123.511 Y149.935
;TYPE:WALL-INNER
G1 F1500 E22.45784
G1 F1200 X122.248 Y150.197 E22.50074
G1 X120.943 Y150.287 E22.54424
G1 X90.996 Y150.287 E23.54029
G1 X89.691 Y150.197 E23.58379
G1 X88.427 Y149.935 E23.62673
G1 X87.228 Y149.509 E23.66905
G1 X86.084 Y148.915 E23.71192
G1 X85.038 Y148.178 E23.75448
G1 X84.097 Y147.298 E23.79733
G1 X83.296 Y146.314 E23.83953
G1 X82.622 Y145.205 E23.8827
G1 X82.115 Y144.038 E23.92502
G1 X81.766 Y142.793 E23.96802
G1 X81.593 Y141.532 E24.01035
G1 X81.593 Y140.241 E24.05329
G1 X81.766 Y138.98 E24.09563
G1 X82.115 Y137.735 E24.13863
G1 X82.622 Y136.568 E24.18095
G1 X83.296 Y135.459 E24.22411
G1 X84.097 Y134.475 E24.26632
G1 X85.038 Y133.595 E24.30917
G1 X86.084 Y132.858 E24.35172
G1 X87.228 Y132.264 E24.3946
G1 X88.427 Y131.838 E24.43692
G1 X89.69 Y131.576 E24.47982
G1 X90.995 Y131.487 E24.52333
G1 X120.943 Y131.487 E25.5194
G1 X122.249 Y131.576 E25.56294
